X:1
T:Title
%%score { ( 1 3 ) | 2 }
L:1/8
M:4/4
K:Ab
V:1 treble nm="Grand Piano"
V:3 treble 
V:2 bass 
V:1
 z4 z2[Q:1/4=112] [CA][DB] | [Ec]2 [Ec]2 [DB]2 [CA]2 | F2 A2 E3 E | A3 A c2 [Ee]2 | %4
[M:3/4] [Ec]4 [EB]2 |[M:1/4] [CA][DB] |[M:4/4] [Ec]2 [Ec]2 [DB]2 [CA]2 | F2 A2 E3 E | c3 c c2 A2 | %9
[M:3/4] B4 [CA]2 |[M:1/4] c2 |[M:4/4] B4 z4 | c4 z4 | [Ee]2 [Ee]2 [Ee]2 [Ec]2 |[M:3/4] B6 | %15
[M:1/4] [CA][DB] |[M:4/4] [Ec]2 [Ec]2 [DB]2 [CA]2 | F2 A2 E3 E | c3 c c2 A2 |[M:3/4] B4 [CA]2 |] %20
V:2
 z4 z2 [A,,A,]2 | [A,,A,]2 [A,,A,]2 [A,,A,]2 [A,,A,]2 | [D,A,D]2 [F,A,D]2 [A,C]3 [A,C] | %3
 [A,CE]3 [A,CE] [A,E]2 [C,A,]2 |[M:3/4] [E,A,]4 [E,G,]2 |[M:1/4] [A,,A,]2 | %6
[M:4/4] [A,,A,]2 [A,,A,]2 [A,,A,]2 [A,,A,]2 | [D,A,D]2 [F,A,D]2 [A,C]3 [A,C] | %8
 [E,A,E]3 [E,A,E] [E,A,E]2 [E,A,C]2 |[M:3/4] [E,G,D]4 [A,,A,]2 |[M:1/4] [A,E]2 | %11
[M:4/4] [E,G,D]2 [E,G,]2 [E,G,D]2 [E,G,]2 | [A,,A,]2 [A,,A,]2 [A,CE]2 [A,E]2 | %13
 [A,,C]2 [B,,G,]2 [C,A,]2 [A,,A,]2 |[M:3/4] [E,G,E]2 [E,G,]2 [E,G,]2 |[M:1/4] [A,,A,]2 | %16
[M:4/4] [A,,A,]2 [A,,A,]2 [A,,A,]2 [A,,A,]2 | [D,A,D]2 [F,A,D]2 [A,C]3 [A,C] | %18
 [E,A,E]3 [E,A,E] [E,A,E]2 [E,A,C]2 |[M:3/4] [E,G,D]4 [A,,A,]2 |] %20
V:3
 x8 | x8 | x8 | x8 |[M:3/4] x6 |[M:1/4] x2 |[M:4/4] x8 | x8 | x8 |[M:3/4] x6 |[M:1/4] x2 | %11
[M:4/4] z2 D2 E2 [Fd]2 | E2 E2 A2 c2 | x8 |[M:3/4] z2 E2 E2 |[M:1/4] x2 |[M:4/4] x8 | x8 | x8 | %19
[M:3/4] x6 |] %20

